packages/ui/public/icons/home.svg

<svg width="20" height="17" viewBox="0 0 20 17" fill="none" xmlns="http://www.w3.org/2000/svg">
<path d="M12.1323 14.1538H8.17725V9.68604C8.17725 9.51025 8.23096 9.37109 8.33838 9.26855C8.4458 9.16113 8.5874 9.10742 8.76318 9.10742H11.5537C11.7295 9.10742 11.8687 9.16113 11.9712 9.26855C12.0786 9.37109 12.1323 9.51025 12.1323 9.68604V14.1538ZM3.38721 14.3589C3.38721 14.9204 3.55811 15.3623 3.8999 15.6846C4.24658 16.0117 4.71533 16.1753 5.30615 16.1753H15.0107C15.5967 16.1753 16.0605 16.0117 16.4023 15.6846C16.749 15.3623 16.9224 14.9204 16.9224 14.3589V9.17334L10.6309 3.88525C10.3184 3.62158 10.0034 3.62158 9.68604 3.88525L3.38721 9.17334V14.3589ZM0.867676 7.69385C0.867676 7.95264 0.953125 8.16992 1.12402 8.3457C1.2998 8.5166 1.53418 8.60205 1.82715 8.60205C1.96387 8.60205 2.0957 8.57275 2.22266 8.51416C2.34961 8.45068 2.46924 8.37256 2.58154 8.27979L9.75928 2.2666C9.89111 2.1543 10.0254 2.09814 10.1621 2.09814C10.3037 2.09814 10.4404 2.1543 10.5723 2.2666L17.7354 8.27979C17.8477 8.37256 17.9673 8.45068 18.0942 8.51416C18.2212 8.57275 18.353 8.60205 18.4897 8.60205C18.7681 8.60205 18.9951 8.52148 19.1709 8.36035C19.3516 8.19922 19.4419 7.98193 19.4419 7.7085C19.4419 7.40088 19.3174 7.14209 19.0684 6.93213L11.4438 0.530762C11.0581 0.203613 10.6309 0.0400391 10.1621 0.0400391C9.69824 0.0400391 9.271 0.203613 8.88037 0.530762L1.24854 6.93945C0.994629 7.1543 0.867676 7.40576 0.867676 7.69385ZM14.5127 3.7168L16.9956 5.78955V1.98828C16.9956 1.81738 16.9443 1.68066 16.8418 1.57812C16.7393 1.47559 16.6025 1.42432 16.4316 1.42432H15.084C14.9131 1.42432 14.7739 1.47559 14.6665 1.57812C14.564 1.68066 14.5127 1.81738 14.5127 1.98828V3.7168Z" fill="white" fill-opacity="0.8"/>
</svg>

<svg width="20" height="17" fill="none" xmlns="http://www.w3.org/2000/svg"><path d="M12.132 14.154H8.177V9.686a.55.55 0 0 1 .586-.579h2.79a.55.55 0 0 1 .58.579v4.468Zm-8.745.205c0 .561.171 1.003.513 1.326.347.327.815.49 1.406.49h9.705c.586 0 1.05-.163 1.391-.49.347-.323.52-.765.52-1.326V9.173l-6.291-5.288c-.313-.263-.628-.263-.945 0L3.387 9.173v5.186ZM.867 7.694c0 .259.086.476.257.652.176.17.41.256.703.256.137 0 .269-.03.396-.088.127-.063.246-.141.359-.234l7.177-6.013a.62.62 0 0 1 .403-.169c.142 0 .278.056.41.169l7.163 6.013c.113.093.232.17.36.234a.934.934 0 0 0 .395.088c.278 0 .505-.08.68-.242.182-.16.272-.378.272-.651a.977.977 0 0 0-.374-.777L11.444.531C11.058.204 10.63.04 10.162.04c-.464 0-.891.164-1.282.49L1.25 6.94c-.254.214-.381.466-.381.754Zm13.646-3.977 2.483 2.073V1.988a.554.554 0 0 0-.154-.41.554.554 0 0 0-.41-.154h-1.348a.58.58 0 0 0-.418.154.554.554 0 0 0-.153.41v1.729Z" fill="#fff" fill-opacity=".8"/></svg>
